src/images/react.svg

<?xml version="1.0" encoding="UTF-8"?>
<svg width="100px" height="89px" viewBox="0 0 100 89" version="1.1" xmlns="http://www.w3.org/2000/svg" xmlns:xlink="http://www.w3.org/1999/xlink">
    <!-- Generator: Sketch 51.3 (57544) - http://www.bohemiancoding.com/sketch -->
    <title>react</title>
    <desc>Created with Sketch.</desc>
    <defs></defs>
    <g id="Welcome" stroke="none" stroke-width="1" fill="none" fill-rule="evenodd">
        <g id="Desktop-HD" transform="translate(-542.000000, -939.000000)" fill="#61DAFB" fill-rule="nonzero">
            <g id="Group-3" transform="translate(0.000000, 587.000000)">
                <g id="react" transform="translate(542.000000, 352.000000)">
                    <path d="M58,45 C58,49.9705627 54.1944204,54 49.5,54 C44.8055796,54 41,49.9705627 41,45 C41,42.6130516 41.8955331,40.3238664 43.4895924,38.636039 C45.0836516,36.9482116 47.2456598,36 49.5,36 C51.7543402,36 53.9163484,36.9482116 55.5104076,38.636039 C57.1044669,40.3238664 58,42.6130516 58,45 Z" id="Shape"></path>
                    <g id="Group">
                        <path d="M31.7901938,54.4311253 C25.1745728,42.994259 20.7227119,30.9791545 19.4140129,21.0291141 C18.1053139,11.0790738 20.0469838,4.00919317 24.8118586,1.37483376 C34.7335062,-4.11109163 53.9436943,10.7471619 67.7194983,34.562046 C74.3351193,45.9989124 78.7869802,58.0140169 80.0956793,67.9640572 C81.4043783,77.9140975 79.4627083,84.9839782 74.6978335,87.6183376 C64.7761859,93.104263 45.5659978,78.2460094 31.7901938,54.4311253 Z M35.6856328,52.3836701 C41.7258375,62.8257196 49.008222,72.0218002 55.9306528,77.9487627 C62.8530836,83.8757252 68.848475,86.0480327 72.5978335,83.9877749 C76.3476138,81.9284582 77.5444498,75.8054452 75.9250484,66.9657445 C74.3056469,58.1260438 70.0026626,47.2937667 63.9627138,36.8519182 C57.9225092,26.4098686 50.6401247,17.2137881 43.7176938,11.2868256 C36.795263,5.35986305 30.7998716,3.18755552 27.0505131,5.2478133 C23.3007329,7.30713002 22.1038968,13.430143 23.7232983,22.2698437 C25.3426997,31.1095445 29.645684,41.9418215 35.6856328,52.3836701 Z" id="Shape"></path>
                        <path d="M32.2736602,33.9486061 C38.8890539,22.5118253 47.0879826,12.6562484 55.0667433,6.55002857 C63.0455041,0.443808706 70.1505054,-1.41285447 74.8187001,1.38849105 C79.4870446,4.18948505 81.3362758,11.4189826 79.9595831,21.4865736 C78.5828903,31.5541645 74.0930455,43.6351623 67.4777651,55.0718798 C60.8623714,66.5086606 52.6634427,76.3642375 44.684682,82.4704574 C36.7059212,88.5766772 29.60092,90.4333404 24.9327252,87.6319949 C20.2643807,84.8310009 18.4151495,77.6015033 19.7918423,67.5339124 C21.168535,57.4663215 25.6583798,45.3853237 32.2736602,33.9486061 Z M35.9978335,36.2920831 C29.9580166,46.7339623 25.620272,57.6265573 23.9388587,66.5736094 C22.2574454,75.5206615 23.3700968,81.7892708 27.032041,84.0004079 C30.6935997,86.2123529 36.6046795,84.1855918 43.4648639,78.3660047 C50.3250482,72.5464177 57.5723644,63.4107339 63.6124287,52.9687711 C69.6522456,42.5268919 73.9899902,31.634297 75.6714036,22.6872448 C77.3528169,13.7401927 76.2401655,7.47158341 72.5782212,5.26044629 C68.9166625,3.0485013 63.0055828,5.07526243 56.1453984,10.8948495 C49.285214,16.7144365 42.0378978,25.8501203 35.9978335,36.2920831 Z" id="Shape"></path>
                        <path d="M50.3648803,24.0755243 C63.5959234,24.0754776 76.2467589,26.2348847 85.5342391,30.0786824 C94.8217192,33.92248 99.9850292,39.1357906 99.8882554,44.5717008 C99.686512,55.8908018 77.1893121,65.0665947 49.6385405,65.0667391 C22.0873616,65.0668318 -0.0848180217,55.8909695 0.115165336,44.5717008 C0.211314967,39.1358679 5.55949917,33.9226249 14.9831637,30.0788401 C24.4068282,26.2350553 37.1340248,24.0755959 50.3648803,24.0755243 Z M50.1936602,28.4664565 C38.1136427,28.4665318 26.4935428,30.1632755 17.8897202,33.1834131 C9.28589749,36.2035507 4.40315399,40.2996807 4.31566705,44.5706765 C4.22720542,48.8416604 8.9411776,52.93778 17.4205403,55.9579157 C25.899903,58.9780513 37.4500537,60.674803 49.5300342,60.6748964 C61.6100517,60.6748211 73.2301516,58.9780774 81.8339743,55.9579398 C90.4377969,52.9378022 95.3205404,48.8416722 95.4080274,44.5706765 C95.496489,40.2996926 90.7825168,36.2035729 82.3031541,33.1834373 C73.8237914,30.1633016 62.2736407,28.4665499 50.1936602,28.4664565 Z" id="Shape"></path>
                    </g>
                </g>
            </g>
        </g>
    </g>
</svg>

<svg width="100" height="89" xmlns="http://www.w3.org/2000/svg"><g fill="#61DAFB" fill-rule="nonzero"><path d="M58 45c0 4.97-3.806 9-8.5 9S41 49.97 41 45c0-2.387.896-4.676 2.49-6.364C45.084 36.948 47.246 36 49.5 36s4.416.948 6.01 2.636C57.104 40.324 58 42.613 58 45z"/><path d="M31.79 54.431C25.175 42.994 20.723 30.98 19.414 21.03c-1.309-9.95.633-17.02 5.398-19.654 9.922-5.486 29.132 9.372 42.907 33.187 6.616 11.437 11.068 23.452 12.377 33.402 1.308 9.95-.633 17.02-5.398 19.654-9.922 5.486-29.132-9.372-42.908-33.187zm3.896-2.047c6.04 10.442 13.322 19.638 20.245 25.565 6.922 5.927 12.917 8.099 16.667 6.039 3.75-2.06 4.946-8.183 3.327-17.022-1.62-8.84-5.922-19.672-11.962-30.114S50.64 17.214 43.718 11.287C36.795 5.36 30.8 3.187 27.05 5.247c-3.75 2.06-4.947 8.183-3.328 17.023 1.62 8.84 5.923 19.672 11.963 30.114z"/><path d="M32.274 33.949C38.889 22.512 47.088 12.656 55.067 6.55 63.046.444 70.15-1.413 74.819 1.388c4.668 2.801 6.517 10.031 5.14 20.099-1.376 10.067-5.866 22.148-12.481 33.585-6.616 11.437-14.815 21.292-22.793 27.398-7.98 6.107-15.084 7.963-19.752 5.162-4.669-2.801-6.518-10.03-5.141-20.098 1.377-10.068 5.866-22.149 12.482-33.585zm3.724 2.343c-6.04 10.442-10.378 21.335-12.06 30.282-1.68 8.947-.568 15.215 3.094 17.426 3.662 2.212 9.573.186 16.433-5.634 6.86-5.82 14.107-14.955 20.147-25.397 6.04-10.442 10.378-21.335 12.06-30.282 1.68-8.947.568-15.215-3.094-17.427-3.661-2.211-9.572-.185-16.433 5.635-6.86 5.82-14.107 14.955-20.147 25.397z"/><path d="M50.365 24.076c13.23 0 25.882 2.159 35.17 6.003 9.287 3.843 14.45 9.057 14.353 14.493-.201 11.319-22.699 20.495-50.25 20.495-27.55 0-49.723-9.176-49.523-20.495.096-5.436 5.444-10.65 14.868-14.493 9.424-3.844 22.151-6.003 35.382-6.003zm-.171 4.39c-12.08 0-23.7 1.697-32.304 4.717C9.286 36.203 4.403 40.3 4.316 44.571c-.089 4.27 4.625 8.367 13.105 11.387 8.479 3.02 20.03 4.717 32.109 4.717 12.08 0 23.7-1.697 32.304-4.717 8.604-3.02 13.487-7.116 13.574-11.387.088-4.271-4.625-8.367-13.105-11.388-8.48-3.02-20.03-4.716-32.11-4.717z"/></g></svg>
